!!!OTL: Song zidibing shangqanxian
!!!ARE: Asia, China, Shanxi Xixian
!! I, 299, 1)
!!!SCT: C2101
!!!YEM: Copyright 1995, estate of Helmut Schaffrath.
**kern
*ICvox
*Ivox
*M2/4
*k[b-]
*F:
{8dd
8dd
16dd
16ff
16dd
16cc
=1
8a
16cc
16g
8f
8d
=2
8dd
8dd
16dd
16ff
16dd
16cc
=3
4.a
8d}
=4
{8dd
8dd
16dd
16ff
16dd
16cc
=5
8a
16cc
16g
8f
8d
=6
16g
8g
16cc
16a
16g
8f
=7
2d}
==
!!!AGN: Xiaodiao
!! Han
!!!ONB: ESAC (Essen Associative Code) Database: SENGANSU
!!!AMT: simple duple
!!!AIN: vox
!!!EED: Helmut Schaffrath
!!!EEV: 1.0
*-
